X:1
T:Caro e dolce conforto
T:Luca Marenzio
T:Source : Il quinto libro delle Villanelle a tre voci---Venetia---Herede di G.Scotto---1587. Editor : André Vierendeels (08/05/17).
T:Notes : Original clefs : C1, C2, F4 Editorial accidentals above the staff Music collected by Attilio Gualtieri 
T:Caro e dolce conforto
T:©
T:©
C:Luca Marenzio
Z:©
%%score [ 1 2 3 ]
L:1/8
Q:1/4=120
M:4/4
K:F
V:1 treble nm="Soprano 1" snm="S 1"
V:2 treble nm="Soprano 2" snm="S 2"
V:3 bass nm="Bass" snm="B"
V:1
"^1)" d8- | d4 c4 | B8 | B4 A4 | G8 | F8 | z4 A4- | A4 G2 F2 | E4 D4 | E8 |1 D8 :|2 D8 |: z4 d4 | %13
w: Ca-|* ro'e|dol-|ce con-|for-|to,|ahi-|* me ch'ha-|ve- te|to-|ro,||a|
w: Ne|_ me-|ri-|tai gia-|ma-|i,|per|_ ben ri-|ce- ver|gua-|i,||an-|
 G4 A4 | B4 B4 | c8 | d4 z4 | z2 f2 e2 d2 | c3 d c2 B2 | A2 G2 A4 | G8 :| %21
w: dar- mi|guai e|pe-|ne,|sa- pen- do|cer- to che vi-|vo- glio be-|ne.|
w: zi d'es-|ser a-|ma-|to,|e vi- ver|sem- pre lie- to'e|for- tu- na-|to.|
V:2
"^2)""^1)" B8- | B4 A4 | G8 | G4 F4 | _E8 | D8 | z4 F4- | F4 E2 D2 | ^C4 D4- | D4 ^C4 |1 D8 :|2 %11
w: Ca-|* ro'e|dol-|ce con-|for-|to,|ahi-|* me ch'ha-|ve- te|_ to-|ro,|
w: E|_ se|pur|no'l cre-|de-|te,|ahi-|* me voi|m'uc- ci-|* de-|te,|
 D4 A4 |: B8- | B4 A4 | G2 A2 B4- | B2 AG A4 | B2 d2 c2 B2 | A3 A B3 A | G6 G2 | ^F2 G4 F2 | G8 :| %21
w: ro, a|dar-|* mi|gua- i'e pe-||ne, sa- pen- do|cer- to che vi|vo- glio|be- * *|ne.|
w: te, fa-|te|_ ch'al|fin' io mo-||ra, per non mo-|rir de mil- le|mor- te|l'ho- * *|ra.|
V:3
"^3)""^1)""^4)" B,8- | B,4 F,4 | G,8 | G,4 D,4 | _E,8 | B,,4 B,4- | B,4 A,2 G,2 | F,4 G,4 | A,8- | %9
w: Ca-|* ro'e|dol-|ce con-|for-|to, ahi-|* me ch'ha-|ve- te|to-|
w: Ma|_ poi|ch'a|voi pur|pia-|ce, di|_ non mi|dar mai|pia-|
 A,8 |1 D,8 :|2 D,4 D,4 |: G,8- | G,4 F,4 | _E,4 D,4 | C,8 | B,,2 B,2 A,2 G,2 | F,3 D, G,2 G,2 | %18
w: |ro,|ro, a|dar-|* mi|gua- i'e|pe-|ne, sa- pen- do|cer- to vi- vo|
w: |ce,|ce, mi|con-|* ten-|to mo-|ri-|re, che do- po|mor- te'ha- vro man-|
 C,4 C,4 | D,8 | G,,8 :| %21
w: vo- glio|be-|ne.|
w: co mar-|ti-|re.|

